resources/img/scalable/actions/flypie-menu-system-symbolic.svg

<?xml version="1.0" encoding="UTF-8" standalone="no"?>
<svg
   xmlns:dc="http://purl.org/dc/elements/1.1/"
   xmlns:cc="http://creativecommons.org/ns#"
   xmlns:rdf="http://www.w3.org/1999/02/22-rdf-syntax-ns#"
   xmlns:svg="http://www.w3.org/2000/svg"
   xmlns="http://www.w3.org/2000/svg"
   xmlns:sodipodi="http://sodipodi.sourceforge.net/DTD/sodipodi-0.dtd"
   xmlns:inkscape="http://www.inkscape.org/namespaces/inkscape"
   width="4.2333mm"
   height="4.2333mm"
   version="1.1"
   viewBox="0 0 4.2333 4.2333"
   id="svg14427"
   sodipodi:docname="flypie-menu-system-symbolic.svg"
   inkscape:version="1.0.2 (e86c870879, 2021-01-15)">
  <defs
     id="defs14431" />
  <sodipodi:namedview
     pagecolor="#ffffff"
     bordercolor="#666666"
     borderopacity="1"
     objecttolerance="10"
     gridtolerance="10"
     guidetolerance="10"
     inkscape:pageopacity="0"
     inkscape:pageshadow="2"
     inkscape:window-width="1779"
     inkscape:window-height="1113"
     id="namedview14429"
     showgrid="false"
     inkscape:zoom="45.937859"
     inkscape:cx="7.9999374"
     inkscape:cy="7.9999374"
     inkscape:window-x="0"
     inkscape:window-y="32"
     inkscape:window-maximized="0"
     inkscape:current-layer="svg14427" />
  <metadata
     id="metadata14415">
    <rdf:RDF>
      <cc:Work
         rdf:about="">
        <dc:format>image/svg+xml</dc:format>
        <dc:type
           rdf:resource="http://purl.org/dc/dcmitype/StillImage" />
        <dc:title />
      </cc:Work>
    </rdf:RDF>
  </metadata>
  <path
     d="m 1.9840184,0.2653116 c -0.1461672,0 -0.2640641,0.11789685 -0.2640641,0.26406142 V 0.64874623 A 1.5170488,1.5170488 0 0 0 1.3613161,0.79860434 l -0.085266,-0.0852636 c -0.1033528,-0.10335553 -0.2697393,-0.10335553 -0.37311067,0 L 0.71638916,0.89989086 c -0.10335553,0.10335024 -0.10335553,0.26973934 0,0.37311074 l 0.0847476,0.084748 A 1.5170488,1.5170488 0 0 0 0.65282646,1.7168901 H 0.53293997 c -0.14616457,0 -0.26406407,0.1173809 -0.26406407,0.2635455 v 0.264064 c 0,0.1461646 0.1178995,0.2635455 0.26406407,0.2635455 H 0.6517946 a 1.5170488,1.5170488 0 0 0 0.14985811,0.3586382 l -0.0852636,0.085264 c -0.10335553,0.1033555 -0.10335553,0.2697393 0,0.3731107 l 0.18655007,0.1865501 c 0.10335282,0.1033528 0.26973922,0.1033528 0.37311062,0 l 0.08475,-0.084748 a 1.5170488,1.5170488 0 0 0 0.359141,0.1483077 v 0.1204051 c 0,0.1461646 0.1178969,0.2635455 0.2640641,0.2635481 h 0.2635455 c 0.1461644,0 0.264064,-0.1173835 0.264064,-0.2635481 V 3.5762022 A 1.5170488,1.5170488 0 0 0 2.8702529,3.4263415 l 0.085266,0.085266 c 0.1033555,0.1033528 0.2697393,0.1033528 0.3731107,0 L 3.5151773,3.3250576 c 0.1033555,-0.1033529 0.1033555,-0.2697393 0,-0.3731107 L 3.4304296,2.8671993 A 1.5170488,1.5170488 0 0 0 3.57874,2.5080584 h 0.1198864 c 0.1461673,0 0.2640641,-0.117381 0.2640641,-0.2635455 V 1.9804488 c 0,-0.1461646 -0.1178968,-0.2635455 -0.2640641,-0.2635455 H 3.5797718 A 1.5170488,1.5170488 0 0 0 3.4299137,1.3582651 l 0.085264,-0.085266 c 0.1033555,-0.1033529 0.1033555,-0.2697393 0,-0.37311069 L 3.3286298,0.71333814 c -0.1033555,-0.10335553 -0.2697393,-0.10335553 -0.3731107,0 l -0.084748,0.0847476 A 1.5170488,1.5170488 0 0 0 2.5116306,0.64977544 V 0.52937038 c 0,-0.14616458 -0.1178995,-0.26406143 -0.2640641,-0.26406143 z m 0.1364227,1.0521288 a 0.79374,0.79374 0 0 1 0.79374,0.79374 0.79374,0.79374 0 0 1 -0.79374,0.79374 0.79374,0.79374 0 0 1 -0.79374,-0.79374 0.79374,0.79374 0 0 1 0.79374,-0.79374 z"
     enable-background="new"
     fill="#2e3436"
     style="stroke-width:0.26458;paint-order:normal"
     id="path14421" />
</svg>

<svg xmlns="http://www.w3.org/2000/svg" width="16" height="16" viewBox="0 0 4.233 4.233"><path d="M1.984.265A.264.264 0 0 0 1.72.53v.12a1.517 1.517 0 0 0-.359.15L1.276.713a.263.263 0 0 0-.373 0L.716.9a.263.263 0 0 0 0 .373l.085.085a1.517 1.517 0 0 0-.148.359h-.12a.263.263 0 0 0-.264.263v.264c0 .147.118.264.264.264h.119a1.517 1.517 0 0 0 .15.359l-.086.085a.263.263 0 0 0 0 .373l.187.187c.103.103.27.103.373 0l.085-.085a1.517 1.517 0 0 0 .359.148v.12c0 .147.118.264.264.264h.264a.263.263 0 0 0 .264-.263v-.12a1.517 1.517 0 0 0 .358-.15l.086.086c.103.103.27.103.373 0l.186-.187a.263.263 0 0 0 0-.373l-.085-.085a1.517 1.517 0 0 0 .149-.359h.12a.263.263 0 0 0 .264-.263V1.98a.263.263 0 0 0-.264-.263h-.12a1.517 1.517 0 0 0-.15-.359l.086-.085a.263.263 0 0 0 0-.373L3.33.713a.263.263 0 0 0-.373 0L2.87.798A1.517 1.517 0 0 0 2.51.65V.53a.264.264 0 0 0-.263-.265zm.136 1.052a.794.794 0 0 1 .794.794.794.794 0 0 1-.794.794.794.794 0 0 1-.793-.794.794.794 0 0 1 .793-.794z" fill="#2e3436" style="stroke-width:.26458;paint-order:normal"/></svg>
